svg/fluentui-system-icons/ic_fluent_arrow_export_ltr_20_regular.svg

<svg width="20" height="20" viewBox="0 0 20 20" fill="none" xmlns="http://www.w3.org/2000/svg">
<path d="M2.5 4C2.77614 4 3 4.22386 3 4.5V15.5C3 15.7761 2.77614 16 2.5 16C2.22386 16 2 15.7761 2 15.5V4.5C2 4.22386 2.22386 4 2.5 4ZM5 10C5 9.72386 5.22386 9.5 5.5 9.5H16.2929L13.1464 6.35355C12.9512 6.15829 12.9512 5.84171 13.1464 5.64645C13.3417 5.45118 13.6583 5.45118 13.8536 5.64645L17.8536 9.64645C17.9061 9.69898 17.9445 9.76028 17.9688 9.82563C17.989 9.87992 18 9.93867 18 10C18 10.0613 17.989 10.1201 17.9687 10.1744C17.9445 10.2397 17.9061 10.301 17.8536 10.3536L13.8536 14.3536C13.6583 14.5488 13.3417 14.5488 13.1464 14.3536C12.9512 14.1583 12.9512 13.8417 13.1464 13.6465L16.2929 10.5H5.5C5.22386 10.5 5 10.2761 5 10Z" fill="#212121"/>
</svg>

<svg xmlns="http://www.w3.org/2000/svg" width="20" height="20"><path d="M2.5 4a.5.5 0 0 1 .5.5v11a.5.5 0 0 1-1 0v-11a.5.5 0 0 1 .5-.5ZM5 10a.5.5 0 0 1 .5-.5h10.793l-3.147-3.146a.5.5 0 0 1 .708-.708l4 4a.5.5 0 0 1 0 .708l-4 4a.5.5 0 0 1-.708-.707l3.147-3.147H5.5A.5.5 0 0 1 5 10Z"/></svg>
